X:9
T:Doublings of the Troop
S:Ashworth's Instructor, p. 31
M:2/4
%%MIDI program 72
%%MIDI transpose 8
L:1/16
K:Amix
e2(ec) e2c2|e2eg dBGB|e2ec e2eg|dBGB A4::a2af g2ge|dBge dBGB|
a2af g2ge|dBGB A4|a2af g2ge|dBge dBGB|a2af g2ge|dBGB A4:|]

